svgs/thin/peseta-sign.svg

<svg xmlns="http://www.w3.org/2000/svg" viewBox="0 0 384 512"><!--! Font Awesome Pro 6.6.0 by @fontawesome - https://fontawesome.com License - https://fontawesome.com/license (Commercial License) Copyright 2024 Fonticons, Inc. --><path d="M79.3 32C62 32 48 46 48 63.3L48 176 8 176c-4.4 0-8 3.6-8 8s3.6 8 8 8l40 0 0 120 0 160c0 4.4 3.6 8 8 8s8-3.6 8-8l0-152 128 0c74.1 0 135.2-56 143.1-128l40.9 0c4.4 0 8-3.6 8-8s-3.6-8-8-8l-40 0c0-79.5-64.5-144-144-144L79.3 32zM320 176L64 176 64 63.3C64 54.9 70.9 48 79.3 48L192 48c70.7 0 128 57.3 128 128zM64 192l255 0c-7.9 63.1-61.7 112-127 112L64 304l0-112z"/></svg>

<svg xmlns="http://www.w3.org/2000/svg" viewBox="0 0 384 512"><!--! Font Awesome Pro 6.5.2 by @fontawesome - https://fontawesome.com License - https://fontawesome.com/license (Commercial License) Copyright 2024 Fonticons, Inc. --><path d="M79.3 32C62 32 48 46 48 63.3V176H8c-4.4 0-8 3.6-8 8s3.6 8 8 8H48V312 472c0 4.4 3.6 8 8 8s8-3.6 8-8V320H192c74.1 0 135.2-56 143.1-128H376c4.4 0 8-3.6 8-8s-3.6-8-8-8H336c0-79.5-64.5-144-144-144H79.3zM320 176H64V63.3C64 54.9 70.9 48 79.3 48H192c70.7 0 128 57.3 128 128zM64 192H319c-7.9 63.1-61.7 112-127 112H64V192z"/></svg>
